icon/lg/treehouse.svg

<?xml version="1.0" encoding="UTF-8" standalone="no"?>
<svg viewBox="0 0 256 274" version="1.1" xmlns="http://www.w3.org/2000/svg" xmlns:xlink="http://www.w3.org/1999/xlink" preserveAspectRatio="xMidYMid" height="1em" width="1em">
  <g>
    <path d="M242.346667,60.3733333 C238.933333,58.6666667 231.253333,55.2533333 222.72,50.1333333 C213.333333,45.0133333 198.826667,53.5466667 189.44,68.0533333 L173.226667,95.36 C167.253333,107.306667 168.106667,120.106667 175.786667,131.2 L176.64,132.053333 C184.32,143.146667 194.56,152.533333 197.12,155.946667 C198.826667,157.653333 200.533333,161.066667 201.386667,163.626667 C203.946667,173.866667 198.826667,183.253333 188.586667,185.813333 C179.2,188.373333 168.96,182.4 165.546667,173.013333 C164.693333,170.453333 164.693333,167.893333 164.693333,165.333333 C165.546667,161.066667 163.84,154.24 157.866667,149.12 C151.893333,142.293333 139.946667,155.093333 136.533333,167.04 L136.533333,167.893333 C133.12,180.693333 130.56,190.933333 131.413333,191.786667 C131.413333,192.64 132.266667,193.493333 132.266667,193.493333 C137.386667,203.733333 133.973333,215.68 123.733333,220.8 C113.493333,225.92 100.693333,222.506667 95.5733333,212.266667 C90.4533333,202.026667 93.8666667,190.08 104.106667,184.96 C104.96,184.96 104.96,184.106667 105.813333,184.106667 C106.666667,184.106667 108.373333,178.133333 110.933333,172.16 C112.64,166.186667 114.346667,161.066667 114.346667,161.066667 C114.346667,160.213333 114.346667,159.36 115.2,159.36 L125.44,123.52 L115.2,144.853333 C113.493333,140.586667 111.786667,140.586667 106.666667,144 C104.106667,145.706667 98.9866667,149.973333 97.28,151.68 C93.0133333,155.093333 89.6,161.066667 87.8933333,164.48 C87.04,167.04 85.3333333,168.746667 83.6266667,170.453333 C75.9466667,177.28 64,175.573333 58.0266667,167.893333 C52.0533333,160.213333 53.76,149.973333 61.44,144 C64,142.293333 66.56,140.586667 69.12,140.586667 C73.3866667,139.733333 89.6,129.493333 98.9866667,123.52 C100.693333,122.666667 102.4,120.96 103.253333,120.106667 L128,102.186667 L105.813333,114.133333 L100.693333,114.133333 C93.8666667,114.986667 85.3333333,115.84 83.6266667,118.4 C82.7733333,119.253333 81.92,120.96 80.2133333,121.813333 C73.3866667,125.226667 63.1466667,123.52 57.1733333,116.693333 C52.0533333,109.013333 53.76,99.6266667 60.5866667,94.5066667 C64.8533333,91.9466667 68.2666667,91.0933333 71.68,91.0933333 C77.6533333,91.0933333 93.0133333,94.5066667 105.813333,91.9466667 L109.226667,91.0933333 C122.026667,88.5333333 137.386667,78.2933333 143.36,66.3466667 C143.36,66.3466667 149.333333,55.2533333 157.013333,43.3066667 C164.693333,30.5066667 163.84,16.8533333 156.16,11.7333333 L141.653333,3.2 C133.973333,-1.06666667 122.026667,-1.06666667 114.346667,3.2 L13.6533333,58.6666667 C5.97333333,62.9333333 0,74.0266667 0,82.56 L0,191.786667 C0,200.32 5.97333333,209.706667 13.6533333,213.973333 L115.2,270.293333 C122.88,274.56 134.826667,274.56 142.506667,270.293333 L242.346667,213.12 C250.026667,208.853333 256,199.466667 256,190.933333 L256,82.56 C256,74.0266667 250.026667,64.64 242.346667,60.3733333 L242.346667,60.3733333 Z" fill="#5FCF80"/>
  </g>
</svg>

<svg width="256" height="274" xmlns="http://www.w3.org/2000/svg" preserveAspectRatio="xMidYMid"><path d="M242.347 60.373c-3.414-1.706-11.094-5.12-19.627-10.24-9.387-5.12-23.893 3.414-33.28 17.92L173.227 95.36c-5.974 11.947-5.12 24.747 2.56 35.84l.853.853c7.68 11.094 17.92 20.48 20.48 23.894 1.707 1.706 3.413 5.12 4.267 7.68 2.56 10.24-2.56 19.626-12.8 22.186-9.387 2.56-19.627-3.413-23.04-12.8-.854-2.56-.854-5.12-.854-7.68.854-4.266-.853-11.093-6.826-16.213-5.974-6.827-17.92 5.973-21.334 17.92v.853c-3.413 12.8-5.973 23.04-5.12 23.894 0 .853.854 1.706.854 1.706 5.12 10.24 1.706 22.187-8.534 27.307-10.24 5.12-23.04 1.707-28.16-8.533-5.12-10.24-1.706-22.187 8.534-27.307.853 0 .853-.853 1.706-.853.854 0 2.56-5.974 5.12-11.947 1.707-5.973 3.414-11.093 3.414-11.093 0-.854 0-1.707.853-1.707l10.24-35.84-10.24 21.333c-1.707-4.266-3.413-4.266-8.533-.853-2.56 1.707-7.68 5.973-9.387 7.68-4.267 3.413-7.68 9.387-9.387 12.8-.853 2.56-2.56 4.267-4.266 5.973-7.68 6.827-19.627 5.12-25.6-2.56-5.974-7.68-4.267-17.92 3.413-23.893 2.56-1.707 5.12-3.413 7.68-3.413 4.267-.854 20.48-11.094 29.867-17.067 1.706-.853 3.413-2.56 4.266-3.413L128 102.187l-22.187 11.946h-5.12c-6.826.854-15.36 1.707-17.066 4.267-.854.853-1.707 2.56-3.414 3.413-6.826 3.414-17.066 1.707-23.04-5.12-5.12-7.68-3.413-17.066 3.414-22.186 4.266-2.56 7.68-3.414 11.093-3.414 5.973 0 21.333 3.414 34.133.854l3.414-.854c12.8-2.56 28.16-12.8 34.133-24.746 0 0 5.973-11.094 13.653-23.04 7.68-12.8 6.827-26.454-.853-31.574L141.653 3.2c-7.68-4.267-19.626-4.267-27.306 0L13.653 58.667C5.973 62.933 0 74.027 0 82.56v109.227c0 8.533 5.973 17.92 13.653 22.186l101.547 56.32c7.68 4.267 19.627 4.267 27.307 0l99.84-57.173c7.68-4.267 13.653-13.653 13.653-22.187V82.56c0-8.533-5.973-17.92-13.653-22.187Z" fill="#5FCF80"/></svg>
